src/topics/icons/tutsplus.svg

<svg height="173" preserveAspectRatio="xMidYMid" viewBox="0 0 512 173" width="512" xmlns="http://www.w3.org/2000/svg"><g fill="#2a3743"><path d="m16.4234876 169.414155v-96.30916h-16.38705959v-34.2733087h16.38705959v-38.56894568h37.6327171v38.56894568h16.3748213v34.2733087h-16.3748213v61.803324h12.544239v34.505836z"/><path d="m213.86981 38.8378054v96.2969216h15.922005v34.279428h-50.874538v-17.078523c-4.258923 6.431218-9.515265 11.234743-15.738431 14.404458s-13.615089 4.754573-22.126814 4.754573c-14.477887 0-25.626962-4.27116-33.459463-12.837958-7.8263811-8.554559-11.7303931-20.841794-11.7303931-36.880063v-48.4391197h-16.3809404v-34.505836h54.2461845v71.7897617c0 9.76003 1.603215 16.693017 4.815764 20.780603 3.212549 4.112063 8.499487 6.168094 15.860814 6.168094 6.884033 0 12.379022-2.42318 16.491085-7.269539 4.099824-4.840241 6.155856-11.39996 6.155856-19.691396v-37.2900451h-14.985777v-34.505836h51.810767v.0244765z"/><path d="m252.187871 169.414155v-96.30916h-16.38706v-34.2733087h16.38706v-38.56894568h37.632717v38.56894568h16.374821v34.2733087h-16.374821v61.803324h12.544239v34.505836z"/><path d="m320.000191 129.211399h35.197299c.232528 4.650547 1.615453 8.18741 4.124301 10.628948 2.514967 2.429299 6.143618 3.659246 10.861475 3.659246 4.479212 0 7.91205-.985182 10.280157-2.961664 2.368108-1.970364 3.542983-4.815764 3.542983-8.536202 0-5.354248-5.849899-9.411239-17.537458-12.201567-4.564879-1.089207-8.175172-2.007078-10.806403-2.784209-12.32395-3.481792-21.37416-8.499487-27.175105-15.040849-5.807065-6.5413616-8.719776-15.0041336-8.719776-25.3821967 0-12.3178308 4.142658-22.2491966 12.427975-29.7940975 8.285317-7.5510199 19.207984-11.3265299 32.761881-11.3265299 5.41544 0 10.280157.6547481 14.569675 1.9703634 4.301756 1.3217344 8.389342 3.4450763 12.262758 6.3883832v-5.4582738h27.175105v37.0575178h-34.505836c-.691463-4.2589221-1.970363-7.3001352-3.830582-9.11752-1.860219-1.8235041-4.607713-2.7291369-8.254721-2.7291369-3.708199 0-6.724936.9056328-9.007376 2.7291369-2.282439 1.8173848-3.426719 4.1610158-3.426719 7.0247738 0 3.6408889 1.278901 6.467932 3.824464 8.4811294 2.56392 2.0131974 8.762609 4.2589222 18.596069 6.7371743 16.252439 4.1854924 27.450467 9.33169 33.557369 15.450831 6.119141 6.119141 9.178712 14.741011 9.178712 25.902324 0 12.691098-4.436377 23.020208-13.303013 30.956734-8.866635 7.942645-20.340024 11.901729-34.438525 11.901729-5.733635 0-10.941024-.813845-15.628286-2.429299-4.687262-1.63381-9.080806-4.148777-13.18063-7.544901v6.620911h-28.576388v-40.202756z"/><path d="m511.70064 82.1123705h-23.730029v-23.742267h-33.171863v23.742267h-23.736148v33.1657445h23.736148v23.730028h33.171863v-23.730028h23.730029z"/></g></svg>

<?xml version="1.0" encoding="UTF-8" standalone="no"?>
<svg width="512px" height="173px" viewBox="0 0 512 173" version="1.1" xmlns="http://www.w3.org/2000/svg" xmlns:xlink="http://www.w3.org/1999/xlink" preserveAspectRatio="xMidYMid">
	<g fill="#2A3743">
		<path d="M16.4234876,169.414155 L16.4234876,73.104995 L0.0364280112,73.104995 L0.0364280112,38.8316863 L16.4234876,38.8316863 L16.4234876,0.262740616 L54.0562047,0.262740616 L54.0562047,38.8316863 L70.431026,38.8316863 L70.431026,73.104995 L54.0562047,73.104995 L54.0562047,134.908319 L66.6004437,134.908319 L66.6004437,169.414155 L16.4234876,169.414155 L16.4234876,169.414155 Z"></path>
		<path d="M213.86981,38.8378054 L213.86981,135.134727 L229.791815,135.134727 L229.791815,169.414155 L178.917277,169.414155 L178.917277,152.335632 C174.658354,158.76685 169.402012,163.570375 163.178846,166.74009 C156.95568,169.909805 149.563757,171.494663 141.052032,171.494663 C126.574145,171.494663 115.42507,167.223503 107.592569,158.656705 C99.7661879,150.102146 95.8621759,137.814911 95.8621759,121.776642 L95.8621759,73.3375223 L79.4812355,73.3375223 L79.4812355,38.8316863 L133.72742,38.8316863 L133.72742,110.621448 C133.72742,120.381478 135.330635,127.314465 138.543184,131.402051 C141.755733,135.514114 147.042671,137.570145 154.403998,137.570145 C161.288031,137.570145 166.78302,135.146965 170.895083,130.300606 C174.994907,125.460365 177.050939,118.900646 177.050939,110.60921 L177.050939,73.3191649 L162.065162,73.3191649 L162.065162,38.8133289 L213.875929,38.8133289 L213.875929,38.8378054 L213.86981,38.8378054 L213.86981,38.8378054 Z"></path>
		<path d="M252.187871,169.414155 L252.187871,73.104995 L235.800811,73.104995 L235.800811,38.8316863 L252.187871,38.8316863 L252.187871,0.262740616 L289.820588,0.262740616 L289.820588,38.8316863 L306.195409,38.8316863 L306.195409,73.104995 L289.820588,73.104995 L289.820588,134.908319 L302.364827,134.908319 L302.364827,169.414155 L252.187871,169.414155 L252.187871,169.414155 Z"></path>
		<path d="M320.000191,129.211399 L355.19749,129.211399 C355.430018,133.861946 356.812943,137.398809 359.321791,139.840347 C361.836758,142.269646 365.465409,143.499593 370.183266,143.499593 C374.662478,143.499593 378.095316,142.514411 380.463423,140.537929 C382.831531,138.567565 384.006406,135.722165 384.006406,132.001727 C384.006406,126.647479 378.156507,122.590488 366.468948,119.80016 C361.904069,118.710953 358.293776,117.793082 355.662545,117.015951 C343.338595,113.534159 334.288385,108.516464 328.48744,101.975102 C322.680375,95.4337404 319.767664,86.9709684 319.767664,76.5929053 C319.767664,64.2750745 323.910322,54.3437087 332.195639,46.7988078 C340.480956,39.2477879 351.403623,35.4722779 364.95752,35.4722779 C370.37296,35.4722779 375.237677,36.127026 379.527195,37.4426413 C383.828951,38.7643757 387.916537,40.8877176 391.789953,43.8310245 L391.789953,38.3727507 L418.965058,38.3727507 L418.965058,75.4302685 L384.459222,75.4302685 C383.767759,71.1713464 382.488859,68.1301333 380.62864,66.3127485 C378.768421,64.4892444 376.020927,63.5836116 372.373919,63.5836116 C368.66572,63.5836116 365.648983,64.4892444 363.366543,66.3127485 C361.084104,68.1301333 359.939824,70.4737643 359.939824,73.3375223 C359.939824,76.9784112 361.218725,79.8054543 363.764288,81.8186517 C366.328208,83.8318491 372.526897,86.0775739 382.360357,88.555826 C398.612796,92.7413184 409.810824,97.887516 415.917726,104.006657 C422.036867,110.125798 425.096438,118.747668 425.096438,129.908981 C425.096438,142.600079 420.660061,152.929189 411.793425,160.865715 C402.92679,168.80836 391.453401,172.767444 377.3549,172.767444 C371.621265,172.767444 366.413876,171.953599 361.726614,170.338145 C357.039352,168.704335 352.645808,166.189368 348.545984,162.793244 L348.545984,169.414155 L319.969596,169.414155 L319.969596,129.211399 L320.000191,129.211399 L320.000191,129.211399 Z"></path>
		<path d="M511.70064,82.1123705 L487.970611,82.1123705 L487.970611,58.3701035 L454.798748,58.3701035 L454.798748,82.1123705 L431.0626,82.1123705 L431.0626,115.278115 L454.798748,115.278115 L454.798748,139.008143 L487.970611,139.008143 L487.970611,115.278115 L511.70064,115.278115 L511.70064,82.1123705 L511.70064,82.1123705 Z"></path>
	</g>
</svg>
